X:68
T:ASLEEP1- Ta Me Ma Chulla's Na Doushe Me
S:Neils' Celebrated Irish Tunes, Dublin (1724)
N:title translates to I am asleep and don't waken me
Q:1/4=120
M:3/4
K:Gmix
DE G/A/|G2G|A/B/d/A/B/G/|E2D|EG/A/G|B/c/de|"tr"A2G|\
[1 G2A/B/4d/4|[2 G3||\
f2f/g/|e2d|e/d/e/g/a/g/|e/g/ e/d/B|deg/a/|g2e/d/|A2G|\
G/A/G/E/D|f/e/f/g/f/g/|e/d/e/f/g/e/|d/e/d/B/A/G/|GED|\
EGG|B/c/de|"tr"A2G|[1 G2 B/4c/4d/4e/4|[2 G2|G/4A/4B/|c3|B3|\
A3/2 B/ A/G/|E2D|EGG|B/c/de|A2G|G2G3/4A3/4B/|c2 g|\
B2g|A3/2 B/ A/G/|E2D|EG/A/G|B/c/de|A2G|G2 B/4c/4d/4e/4||]
